X: 20081
T: the Happy Clown
%R: jig
B: James Oswald "The Caledonian Pocket Companion" v.2 p.8 #1
Z: 2019 John Chambers <jc:trillian.mit.edu>
M: 6/8
L: 1/8
K: G
D |\
G2A BAG | d2d d2g | Tf2e TTd2c | TB2A G2D |\
G2A BAG | d2d d2g | Tf2e Te2d | d3- d2 :|
|: d |\
dBc ded | dcB c2c | cAB cdc | cBA TB2d |\
g2d g2d | g3 gfe | dcB TA2G | G3 G2 :|
|: D |\
GDG BGB | dBg d2b | agf edc | BcA G2D |\
GDG BGB | dBd gdb | agf ge^c | d3- d2 :|
|: d |\
d(B/c/d/)B/ dgb | dcB c2a | c(A/B/c/A/) cfa | cBA B2d |\
g3 a3 | bag fge | dcB TA2G | G3- G2 :|
